src/assets/outline/MirroringScreen.svg

<svg width="24" height="24" viewBox="0 0 24 24"  xmlns="http://www.w3.org/2000/svg">
<path d="M17 21.75H16C15.59 21.75 15.25 21.41 15.25 21C15.25 20.59 15.59 20.25 16 20.25H17C19.58 20.25 21.25 18.58 21.25 16V8C21.25 5.42 19.58 3.75 17 3.75H7C4.42 3.75 2.75 5.42 2.75 8V9C2.75 9.41 2.41 9.75 2 9.75C1.59 9.75 1.25 9.41 1.25 9V8C1.25 4.56 3.56 2.25 7 2.25H17C20.44 2.25 22.75 4.56 22.75 8V16C22.75 19.44 20.44 21.75 17 21.75Z" />
<path d="M12.2902 21.0597C11.9202 21.0597 11.6002 20.7797 11.5502 20.4097C11.0002 16.1297 7.88017 12.9997 3.59017 12.4497C3.18017 12.3997 2.89018 12.0197 2.94018 11.6097C2.99018 11.1997 3.37017 10.9097 3.78017 10.9597C8.76017 11.5997 12.4002 15.2297 13.0302 20.2097C13.0802 20.6197 12.7902 20.9997 12.3802 21.0497C12.3602 21.0597 12.3202 21.0597 12.2902 21.0597Z" />
<path d="M8.92986 22.1301C8.55986 22.1301 8.23987 21.8501 8.18987 21.4801C7.79987 18.4301 5.56987 16.2 2.51987 15.81C2.10987 15.76 1.81986 15.3801 1.86986 14.9701C1.91986 14.5601 2.29987 14.2701 2.70987 14.3201C6.45987 14.8001 9.18987 17.5401 9.66987 21.2801C9.71987 21.6901 9.42987 22.07 9.01987 22.12C8.98987 22.13 8.95986 22.1301 8.92986 22.1301Z" />
<path d="M5.13022 22.7699C4.76022 22.7699 4.44022 22.4899 4.39022 22.1199C4.22022 20.7699 3.23022 19.7799 1.88022 19.6099C1.47022 19.5599 1.18021 19.1799 1.23021 18.7699C1.28021 18.3599 1.66023 18.0699 2.07023 18.1199C4.09023 18.3799 5.62022 19.9099 5.88022 21.9299C5.93022 22.3399 5.64021 22.7199 5.23021 22.7699C5.20021 22.7699 5.17022 22.7699 5.13022 22.7699Z" />
</svg>

<?xml version="1.0" encoding="UTF-8"?>
<svg width="24" height="24" viewBox="0 0 24 24" xmlns="http://www.w3.org/2000/svg">
 <path d="m17 21.75h-1c-0.41 0-0.75-0.34-0.75-0.75s0.34-0.75 0.75-0.75h1c2.58 0 4.25-1.67 4.25-4.25v-8c0-2.58-1.67-4.25-4.25-4.25h-10c-2.58 0-4.25 1.67-4.25 4.25v1c0 0.41-0.34 0.75-0.75 0.75s-0.75-0.34-0.75-0.75v-1c0-3.44 2.31-5.75 5.75-5.75h10c3.44 0 5.75 2.31 5.75 5.75v8c0 3.44-2.31 5.75-5.75 5.75z"/>
 <path d="m12.29 21.06c-0.37 0-0.69-0.28-0.74-0.65-0.55-4.28-3.67-7.41-7.96-7.96-0.41-0.05-0.69999-0.43-0.64999-0.84s0.42999-0.7 0.83999-0.65c4.98 0.64 8.62 4.27 9.25 9.25 0.05 0.41-0.24 0.79-0.65 0.84-0.02 0.01-0.06 0.01-0.09 0.01z"/>
 <path d="m8.9299 22.13c-0.37 0-0.68999-0.28-0.73999-0.65-0.39-3.05-2.62-5.2801-5.67-5.6701-0.41-0.05-0.70001-0.4299-0.65001-0.8399s0.43001-0.7 0.84001-0.65c3.75 0.48 6.48 3.22 6.96 6.96 0.05 0.41-0.24 0.7899-0.65 0.8399-0.03 0.01-0.06001 0.0101-0.09001 0.0101z"/>
 <path d="m5.1302 22.77c-0.37 0-0.69-0.28-0.74-0.65-0.17-1.35-1.16-2.34-2.51-2.51-0.41-0.05-0.70001-0.43-0.65001-0.84s0.43002-0.7 0.84002-0.65c2.02 0.26 3.55 1.79 3.81 3.81 0.05 0.41-0.24001 0.79-0.65001 0.84h-0.09999z"/>
</svg>
